X: 42530
T: Whelan's
R: jig
M: 6/8
K: Edorian
E2B BAF|FEB AFB|E2B BAB|dAF FED|
E2B BAF|FEB AFA|BCB BAB|dAF FED:|
E2e ede|fed e2d|BAB g2E|fdB AFA|
B2e ede|fed e2f|gbg faf|1 edB AFA:|2 edB AFB||

